X: 26119
T: McGoldrick's
R: reel
M: 4/4
K: Eminor
e2 Be dBAB|e2 Be dgfg|e2Be dBAB|GE (3GAB d3 g|
e2 Be dBAB|e2 Be dgfg|e2Be dBAB|GE (3GAB dBAG||
~A3B AGED|(3EFG AB A3B|AGAB cBcd|(3efg fe dBAG|
A3B AGED|(3EFG AB A3B|AGAB cBcd|(3efg fe edBd:|

